Papirus/24x24/panel/franz-attention-panel.svg

<?xml version="1.0" encoding="UTF-8" standalone="no"?>
<svg xmlns:dc="http://purl.org/dc/elements/1.1/" xmlns:cc="http://creativecommons.org/ns#" xmlns:rdf="http://www.w3.org/1999/02/22-rdf-syntax-ns#" xmlns:svg="http://www.w3.org/2000/svg" xmlns="http://www.w3.org/2000/svg" height="24" width="24" version="1.1" id="svg2" viewBox="0 0 24 24">
    <metadata id="metadata10">
        <rdf:RDF>
            <cc:Work rdf:about="">
                <dc:format>
                    image/svg+xml
                </dc:format>
                <dc:type rdf:resource="http://purl.org/dc/dcmitype/StillImage"/>
                <dc:title/>
            </cc:Work>
        </rdf:RDF>
    </metadata>
<!--Generator: Sketch 3.6 (26304) - http://www.bohemiancoding.com/sketch-->
    <path id="path4" d="m 9.5859375,10 c -0.5876397,0 -1.2662487,1.102674 -1.984375,2.269531 -0.1340863,0.217143 -0.2646379,0.428429 -0.390625,0.625 -0.4049584,0.706286 -0.9511698,1.812565 -1.4785156,2.107422 -0.4418547,0.243428 -0.9201204,0.402344 -1.3007813,0.402344 -0.2573736,0 -0.3595682,-0.0787 -0.3847656,-0.101563 C 3.871393,15.13702 3.6601836,15 3.5,15 3.2732233,15 3,15 3,15.5 3,17 6.066313,17.893255 7.4257812,17.984375 7.6156618,17.994665 7.8098328,18 8.0078125,18 l 0.048828,0 c 1.46325,-0.02514 2.7796745,-0.700869 3.5292975,-1.808297 0.153883,-0.226286 0.375366,-0.191406 0.414062,-0.191406 0.0387,0 0.260179,-0.03488 0.414062,0.191406 0.749624,1.107428 2.066042,1.783157 3.529297,1.808297 l 0.04883,0 c 0.197979,0 0.39215,-0.0053 0.582031,-0.01563 C 17.933687,17.893255 21,17 21,15.5 21,15 20.726777,15 20.5,15 c -0.160184,0 -0.371393,0.13702 -0.546875,0.302734 -0.0252,0.02286 -0.127393,0.101563 -0.384766,0.101563 -0.380661,0 -0.858926,-0.158916 -1.300781,-0.402344 -0.527346,-0.294857 -1.073557,-1.401136 -1.478516,-2.107422 -0.125987,-0.196571 -0.256539,-0.407857 -0.390624,-0.625 C 15.680312,11.102674 15.001701,10 14.414062,10 13.996505,10 13.51408,10.297938 13.048828,10.585938 12.660967,10.825938 12.260974,11 12,11 11.739026,11 11.339032,10.825938 10.951172,10.585938 10.48592,10.297938 10.003495,10 9.5859375,10 Z" style="opacity:1;fill:#ffffff;fill-opacity:1;fill-rule:evenodd;stroke:none"/>
    <circle r="2" cy="8" cx="12" id="path4143" style="opacity:1;fill:#5294e2;fill-opacity:1"/>
</svg>

<?xml version="1.0" encoding="UTF-8" standalone="no"?>
<svg id="svg2" xmlns:rdf="http://www.w3.org/1999/02/22-rdf-syntax-ns#" xmlns="http://www.w3.org/2000/svg" height="24" viewBox="0 0 24 24" width="24" version="1.1" xmlns:cc="http://creativecommons.org/ns#" xmlns:dc="http://purl.org/dc/elements/1.1/">
 <metadata id="metadata10">
  <rdf:RDF>
   <cc:Work rdf:about="">
    <dc:format>image/svg+xml</dc:format>
    <dc:type rdf:resource="http://purl.org/dc/dcmitype/StillImage"/>
    <dc:title/>
   </cc:Work>
  </rdf:RDF>
 </metadata>
<!--Generator: Sketch 3.6 (26304) - http://www.bohemiancoding.com/sketch-->
 <path id="path4" d="m9.5859 10c-0.58764 0-1.2662 1.1027-1.9844 2.2695-0.13409 0.21714-0.26464 0.42843-0.39062 0.625-0.40496 0.70629-0.95117 1.8126-1.4785 2.1074-0.44185 0.24343-0.92012 0.40234-1.3008 0.40234-0.25737 0-0.35957-0.0787-0.38477-0.10156-0.1754-0.166-0.3866-0.303-0.5468-0.303-0.2268 0-0.5 0-0.5 0.5 0 1.5 3.0663 2.393 4.4258 2.484 0.1899 0.011 0.384 0.016 0.582 0.016h0.048828c1.4632-0.02514 2.7797-0.70087 3.5293-1.8083 0.15388-0.22629 0.37537-0.19141 0.41406-0.19141 0.0387 0 0.26018-0.03488 0.41406 0.19141 0.74962 1.1074 2.066 1.7832 3.5293 1.8083h0.04883c0.19798 0 0.39215-0.0053 0.58203-0.01563 1.36-0.091 4.426-0.984 4.426-2.484 0-0.5-0.273-0.5-0.5-0.5-0.16018 0-0.37139 0.13702-0.54688 0.30273-0.0252 0.02286-0.12739 0.10156-0.38477 0.10156-0.38066 0-0.85893-0.15892-1.3008-0.40234-0.52735-0.29486-1.0736-1.4011-1.4785-2.1074-0.12599-0.19657-0.25654-0.40786-0.39062-0.625-0.718-1.167-1.396-2.27-1.984-2.27-0.417 0-0.9 0.298-1.365 0.586-0.388 0.24-0.788 0.414-1.049 0.414s-0.661-0.174-1.049-0.414c-0.465-0.288-0.948-0.586-1.3651-0.586z" fill-rule="evenodd" fill="#fff"/>
 <circle id="path4143" cy="8" cx="12" r="2" fill="#5294e2"/>
</svg>
